X: 15278
T: Girl With The Blue Dress On, The
R: polka
M: 2/4
K: Gmajor
B/c/|:d2 c/B/A/c/|BG G>B|AF F/E/F/G/|AG G/A/B/c/|
dB/d/ cd/c/|B/A/G/F/ GG/B/|AF F/E/D/F/|1 A/G/G GB/c/:|2 A/G/G Gd/B/||
|:G (3B/c/d/ ga/g/|fe e/^d/e/c/|DF/A/ f>e|ed d/c/B/A/|
GB/d/ gd/g/|fe e/^d/e/g/|f/g/a e>f|1 g2- gd/B/:|2 g2 d/c/B/A/||

